Yaru++/emotes/16/face-laugh.svg

<svg height="16" width="16" xmlns="http://www.w3.org/2000/svg"><g stroke-width="1.142857"><path d="m8 0a8 8 0 1 0 0 16 8 8 0 0 0 0-16zm-2.8217143 4.2502857c.84 0 1.6788572.5097143 1.6788572 1.4982857-1.7142858-.3862857-3.5714286 1.9805715-3.4285715 0 .072-.9897143.9108572-1.4994285 1.7497143-1.4994285zm5.6434283 0c.838857 0 1.678857.5097143 1.749715 1.4994286.142857 1.9805714-1.714286-.3862857-3.428572 0 0-.9897143.838857-1.4994286 1.678857-1.4994286zm-8.5359997 4.9268572c2.2857143 1.4902861 9.1279997 1.4902861 11.4639997 0l-.034285.6068571c-.04229.491429-1.142858 3.858286-5.7142861 3.893714-4.5714286.035429-5.7142858-3.177143-5.7142858-3.7862854v-.7142857z" fill="#fdc92b"/><path d="m8 0a8 8 0 0 0 -7.9866071 8.3482143 8 8 0 0 1 7.9866071-7.77678573 8 8 0 0 1 7.986607 7.65178573 8 8 0 0 0 -7.986607-8.2232143zm-1.4665178 5.7075893c-1.4527024-.0588907-2.8953173 1.4883517-3.0781251.4598214-.00835.051047-.022865.097887-.026786.1517858-.1428571 1.9805714 1.7142857-.3862858 3.4285715 0 0-.2215005-.047964-.4139808-.1227679-.5870536-.0667027-.0100719-.1340378-.0218434-.2008925-.0245536zm2.9330358 0c-.06689.00271-.134155.016704-.200893.026786-.0744.1728671-.122768.365938-.122768.5870536 1.714286-.3862857 3.571429 1.9805714 3.428572 0-.004-.055497-.01811-.1037764-.02679-.1562501-.179979 1.0359866-1.623691-.51655-3.078124-.4575892zm4.283482 4.0401786c-.01.00637-.02334.011546-.03348.017857v.017857c-.042288.4914291-1.142859 3.8596611-5.7142879 3.8950891-4.5714286.035429-5.7142857-3.178803-5.7142857-3.787946v.571429c0 .609143 1.1428571 3.823375 5.7142857 3.787946 4.5714289-.03543 5.6719999-3.403661 5.7142859-3.895089z" fill="#fff" opacity=".3"/><path d="m5.1785714 3.6785714c-.8388571 0-1.678.5080536-1.75 1.4977679-.013536.1876669.00623.3040004.026786.4196429.1449036-.8862995.9300399-1.3459822 1.723214-1.3459822.6517887 0 1.2967529.3113513 1.5558036.9107143.040788.00616.082112.00646.1227679.015625 0-.9885714-.8385715-1.4977679-1.6785715-1.4977679zm5.6428576 0c-.84 0-1.678572.5102857-1.678572 1.5.04062-.00915.08202-.00947.122768-.015625.258612-.6008871.903471-.9129464 1.555804-.9129464.791819 0 1.577195.4604341 1.723213 1.3437499.02-.1151096.04018-.2294998.02679-.4151785-.07086-.9897143-.911143-1.5-1.75-1.5zm5.165178 3.9732143a8 8 0 0 1 -7.986607 7.7767853 8 8 0 0 1 -7.9866071-7.6517853 8 8 0 0 0 7.9866071 8.2232143 8 8 0 0 0 7.986607-8.3482143zm-2.236607.953125c-2.335192 1.4897703-9.1739791 1.4909713-11.4620536.0022322v.5714285c2.2782987 1.4823786 9.0652066 1.4863586 11.4285716.015625z" opacity=".2"/></g></svg>

<?xml version="1.0" encoding="UTF-8" standalone="no"?>
<svg
   xmlns:dc="http://purl.org/dc/elements/1.1/"
   xmlns:cc="http://creativecommons.org/ns#"
   xmlns:rdf="http://www.w3.org/1999/02/22-rdf-syntax-ns#"
   xmlns:svg="http://www.w3.org/2000/svg"
   xmlns="http://www.w3.org/2000/svg"
   xmlns:sodipodi="http://sodipodi.sourceforge.net/DTD/sodipodi-0.dtd"
   xmlns:inkscape="http://www.inkscape.org/namespaces/inkscape"
   width="16"
   height="16"
   version="1.1"
   id="svg4"
   sodipodi:docname="face-laugh.svg"
   inkscape:version="0.92.4 (5da689c313, 2019-01-14)">
  <metadata
     id="metadata10">
    <rdf:RDF>
      <cc:Work
         rdf:about="">
        <dc:format>image/svg+xml</dc:format>
        <dc:type
           rdf:resource="http://purl.org/dc/dcmitype/StillImage" />
      </cc:Work>
    </rdf:RDF>
  </metadata>
  <defs
     id="defs8" />
  <sodipodi:namedview
     pagecolor="#ffffff"
     bordercolor="#666666"
     borderopacity="1"
     objecttolerance="10"
     gridtolerance="10"
     guidetolerance="10"
     inkscape:pageopacity="0"
     inkscape:pageshadow="2"
     inkscape:window-width="1920"
     inkscape:window-height="1016"
     id="namedview6"
     showgrid="false"
     inkscape:zoom="14.75"
     inkscape:cx="-4.8813559"
     inkscape:cy="8"
     inkscape:window-x="0"
     inkscape:window-y="27"
     inkscape:window-maximized="1"
     inkscape:current-layer="svg4" />
  <path
     d="M 8,0 A 8,8 0 1 0 8,16 8,8 0 0 0 8,0 Z M 5.1782857,4.2502857 c 0.84,0 1.6788572,0.5097143 1.6788572,1.4982857 -1.7142858,-0.3862857 -3.5714286,1.9805715 -3.4285715,0 0.072,-0.9897143 0.9108572,-1.4994285 1.7497143,-1.4994285 z m 5.6434283,0 c 0.838857,0 1.678857,0.5097143 1.749715,1.4994286 0.142857,1.9805714 -1.714286,-0.3862857 -3.428572,0 0,-0.9897143 0.838857,-1.4994286 1.678857,-1.4994286 z M 2.2857143,9.1771429 c 2.2857143,1.4902861 9.1279997,1.4902861 11.4639997,0 L 13.715429,9.784 c -0.04229,0.491429 -1.142858,3.858286 -5.7142861,3.893714 C 3.4297143,13.713143 2.2868571,10.500571 2.2868571,9.8914286 V 9.1771429 Z"
     id="path2"
     style="fill:#fdc92b;fill-opacity:1;stroke-width:1.14285719"
     inkscape:connector-curvature="0" />
  <path
     style="opacity:0.3;fill:#ffffff;fill-opacity:1;stroke-width:1.14285719"
     d="M 8,0 A 8,8 0 0 0 0.0133929,8.3482143 8,8 0 0 1 8,0.57142857 8,8 0 0 1 15.986607,8.2232143 8,8 0 0 0 8,0 Z M 6.5334822,5.7075893 C 5.0807798,5.6486986 3.6381649,7.195941 3.4553571,6.1674107 c -0.00835,0.051047 -0.022865,0.097887 -0.026786,0.1517858 -0.1428571,1.9805714 1.7142857,-0.3862858 3.4285715,0 0,-0.2215005 -0.047964,-0.4139808 -0.1227679,-0.5870536 C 6.667672,5.722071 6.6003369,5.7102995 6.5334822,5.7075893 Z m 2.9330358,0 c -0.06689,0.00271 -0.134155,0.016704 -0.200893,0.026786 -0.0744,0.1728671 -0.122768,0.365938 -0.122768,0.5870536 1.714286,-0.3862857 3.571429,1.9805714 3.428572,0 -0.004,-0.055497 -0.01811,-0.1037764 -0.02679,-0.1562501 C 12.36466,7.2011654 10.920948,5.6486288 9.466515,5.7075896 Z M 13.75,9.7477679 c -0.01,0.00637 -0.02334,0.011546 -0.03348,0.017857 v 0.017857 C 13.674232,10.274911 12.573661,13.643143 8.0022321,13.678571 3.4308035,13.714 2.2879464,10.499768 2.2879464,9.890625 v 0.571429 c 0,0.609143 1.1428571,3.823375 5.7142857,3.787946 4.5714289,-0.03543 5.6719999,-3.403661 5.7142859,-3.895089 z"
     id="path831"
     inkscape:connector-curvature="0" />
  <path
     style="opacity:0.2;fill:#000000;fill-opacity:1;stroke-width:1.14285719"
     d="m 5.1785714,3.6785714 c -0.8388571,0 -1.678,0.5080536 -1.75,1.4977679 -0.013536,0.1876669 0.00623,0.3040004 0.026786,0.4196429 C 3.600261,4.7096827 4.3853973,4.25 5.1785714,4.25 c 0.6517887,0 1.2967529,0.3113513 1.5558036,0.9107143 0.040788,0.00616 0.082112,0.00646 0.1227679,0.015625 0,-0.9885714 -0.8385715,-1.4977679 -1.6785715,-1.4977679 z m 5.6428576,0 c -0.84,0 -1.678572,0.5102857 -1.678572,1.5 0.04062,-0.00915 0.08202,-0.00947 0.122768,-0.015625 C 9.524237,4.5620593 10.169096,4.25 10.821429,4.25 c 0.791819,0 1.577195,0.4604341 1.723213,1.3437499 0.02,-0.1151096 0.04018,-0.2294998 0.02679,-0.4151785 -0.07086,-0.9897143 -0.911143,-1.5 -1.75,-1.5 z m 5.165178,3.9732143 A 8,8 0 0 1 8,15.428571 8,8 0 0 1 0.0133929,7.7767857 8,8 0 0 0 8,16 8,8 0 0 0 15.986607,7.6517857 Z M 13.75,8.6049107 C 11.414808,10.094681 4.5760209,10.095882 2.2879464,8.6071429 V 9.1785714 C 4.5662451,10.66095 11.353153,10.66493 13.716518,9.1941964 Z"
     id="path836"
     inkscape:connector-curvature="0" />
</svg>
